!!!!SEGMENT: pl-wnifc--13846--107_anonim--107-a-kto-chocze-handziu-znaty.krn
!!!cenid: 18xx:3329
!!!COM: Anonim
!!!COM-rismid: pe30004985
!!!CDT:
!!!CNT:
!!!OTL: 107. A kto chocze Hańdziu znaty
!!!PDT: 1833
!!!AGN:
!!!SMS-siglum: PL-Wnifc
!!!SMS-shelfmark: 13846
!!!SMS-shelfwork: 107 W
!!!NIFC-rismid: 1001039227
!!!URL-scan: http://repozytorium.nifc.pl/skany/pl-wnifc-nut--13846
!!!ONB-nifc:
!!!OMD: Allegro
!!!key: G
**kern	**kern	**kern	**text
*group2	*group2	*group1	*
*part2	*part2	*part1	*part1
*staff3	*staff2	*staff1	*staff1
*I"[Piano]	*I"[Piano]	*I"[Voce]	*
*Ipiano	*Ipiano	*Ivox	*
*ICklav	*ICklav	*ICvox	*
*IGacmp	*IGacmp	*IGsolo	*
*clefF4	*clefG2	*clefG2	*
*k[f#]	*k[f#]	*k[f#]	*
*c:	*c:	*c:	*
*M2/4	*M2/4	*M2/4	*
*>[A,B,B]	*>[A,B,B]	*>[A,B,B]	*
=1-	=1-	=1-	=1-
*>A	*>A	*>A	*
*^	*	*^	*
!	!LO:TX:t=P:problem:4\right:global	!	!	!LO:TX:b:B:rj:t=E.130.	!
8GG^</L 8BB/	4GG\	8g\L 8dd\	8dd\	8d\	A
.	.	(<8qff#/	.	.	.
8G/	.	8g\ 8gg\)	8gg\	8g\	kto
.	.	(<8qff#/	.	.	.
8GG^</ 8BB/	4GG\	8g\ 8gg\)	8gg\	8g\	cho-
.	.	(<8qff#/	.	.	.
8G/J	.	8g\J 8gg\)	8gg\	8g\	-cze
=2	=2	=2	=2	=2	=2
.	.	(<8qff#/	.	.	.
8GG^</L 8BB/	4GG\	8g\L 8gg\)	8gg\	8g\	Hań-
8G/	.	8g\ 8gg\	8gg\	8g\	-dziu
8GG^</ 8BB/	4GG\	8g\ 8ff#\	8ff#\	8f#\	zna-
8G/J	.	8g\J 8dd\	8dd\	8d\	-ty,
!!LO:LB:g=original
=3	=3	=3	=3	=3	=3
8GG/L 8C/	4GG\	8g\L 8ee\'>	8ee\	8e\	pro-
.	.	8qff#/	.	.	.
8G/	.	8gg\J'>	8gg\	8g\	-szu
8GG/ 8C/	4GG\	(>16aaLL	(>\16aaLL	16a\LL	me-
.	.	16gg	16gg\	16g\	.
8G/J	.	16ff#)	16ff#\JJ)	16f#\JJ	.
.	.	16eeJJ'>	16ee\'>	16e\	-ne
=4	=4	=4	=4	=4	=4
8GG/L 8BB/	4GG\	8dd\L	8dd\	8d\	za-
*	*	*	*v	*v	*
8G/	.	8dd\J	8dd\	-py-
8GG/ 8D/	4GG\	8b\L	8b\	-ta-
8G/J	.	8g\J	8g/	-ty,
*v	*v	*	*	*
!!LO:LB:g=original
=5!|:	=5!|:	=5!|:	=5!|:
*>B	*>B	*>B	*
8D\L 8F#\	8a\L	8a/	a
.	8qb/	.	.
8d\	8cc\	8cc\	ja
8D\ 8F#\	8cc\	8cc\	ska-
8d\J	8cc\J	8cc\	-żu
=6	=6	=6	=6
8D\L 8F#\	8cc\L	8cc\	praw-
8d\	8cc\J	8cc\	-du
8G\	8.b\L	8.b\	szczy-
8B\J	.	.	.
.	16dd\Jk	16dd\	-ru,
!!LO:LB:g=original
=7	=7	=7	=7
8C\L 8G\	8ee\L	8ee\	tyl-
8c\	8gg\J	8gg\	-ko
8C\ 8G\	(>\16aaLL	(>\16aaLL	pro-
.	16gg\	16gg\	.
8c\J	16ff#\)	16ff#\JJ)	.
.	16ee\JJ'>	16ee'>\	-szu
=8	=8	=8	=8
!!mixed beam:problem
!LO:TX:t=P:problem:mixed beam	!	!	!
8GG/L	8dd\L	8dd\	daj-
8G\ 8B\	8dd\J	8dd\	-te
8GG/	8.b/L	8.b/	wi-
8G\J 8B\	.	.	.
.	16g/Jk	16g/	-ru.
=:|!	=:|!	=:|!	=:|!
*-	*-	*-	*-
!!!system-decoration: g1,[{g2}]
!!!EED: Jędrzej Mróz
!!!ESR: 2021-11-11
!!!RDF**kern: > = above
!!!RDF**kern: < = below
